X: 15478
T: Glenconwell, The
R: hornpipe
M: 4/4
K: Dmajor
FG|:A_A=AF dcdA|f=f^fA dcdB|A_A=AF dcdF|AGFE DFA,F|
A_A=AF dcdA|f=f^fA dcdB|AdcB (3ABA (3GFE|1 (3DFA (3dAF D2FG:|2 (3DFA (3dAF D2FA|
|:GFGB (3edc (3BAG|F=F^FA (3dcB (3AGF|E_E=Ed (3cBA (3GFE|(3DCD (3FDB, A,2FA|
GFGB (3edc (3BAG|F=F^FA (3dcB (3AGF|EdcB (3ABA (3GFE|1 (3DFA (3dAF D2FA:|2 (3DFA (3dAF D2FG

